images/vehicles/car-outbound-door-left.svg

<?xml version="1.0" standalone="no"?><!DOCTYPE svg PUBLIC "-//W3C//DTD SVG 1.1//EN" "http://www.w3.org/Graphics/SVG/1.1/DTD/svg11.dtd"><svg width="288px" height="360px" version="1.1" xmlns="http://www.w3.org/2000/svg" xmlns:xlink="http://www.w3.org/1999/xlink" xml:space="preserve" style="fill-rule:evenodd;clip-rule:evenodd;stroke-linejoin:round;stroke-miterlimit:1.41421;"><g><g id="car-outbound-door-left" transform="matrix(1,0,0,1,71.9798,166.584)"><g transform="matrix(-1,0,0,1,183.567,0.0005)"><g transform="matrix(1,0,0,1,-1205.35,0)"><path d="M1383.57,172.303l69.9223,-0.0649l-6.006,-95.9351l-50.515,0l-21.379,29.499l7.97769,66.501Z" style="fill:#c1bebb;fill-rule:nonzero;"/></g><g transform="matrix(1,0,0,1,-1205.35,0)"><path d="M1383.57,172.303l69.9223,-0.0649l-6.006,-95.9351l-50.515,0l-21.379,29.499l7.97769,66.501Z" style="fill:#c1bebb;fill-rule:nonzero;"/></g><g transform="matrix(1,0,0,1,-1205.35,0)"><path d="M1383.57,172.303l69.9223,-0.0649l-6.006,-95.9351l-50.515,0l-21.379,29.499l7.97769,66.501Z" style="fill:#c1bebb;fill-rule:nonzero;"/></g><g transform="matrix(1,0,0,1,-1205.35,-8)"><path d="M1379.94,123.436l-2.02581,-4.0205l21.3004,-30.1245l44.348,0l2.234,34.124l-65.8566,0.021Z" style="fill:#313156;fill-rule:nonzero;"/></g><g transform="matrix(1,0,0,1,-1205.35,-8)"><g opacity="0.300003"><path d="M1399.21,89.2754l-21.2965,30.1406l2.05045,4.0314l65.8481,-0.022l-2.229,-34.106l-44.373,-0.044Z" style="fill:#0a1723;fill-rule:nonzero;"/></g></g><g transform="matrix(-1,0,0,1,1956.68,-4.4797)"><path d="M1715.83,125.081l-2.9,45.501l67.332,-0.083l0,-45.5l-64.432,0.082Z" style="fill:#ecdbb1;fill-rule:nonzero;"/></g></g><g><path d="M3.8898,173.884l1.68,19.532l19.321,0l3.991,-19.742l-24.992,0.21Z" style="fill:#5c5e5f;fill-rule:nonzero;"/><path d="M24.0516,173.674l0.84,19.742l5.992,-19.742l-6.832,0Z" style="fill:#2a2b2a;fill-rule:nonzero;"/><path d="M117.358,193.416l19.35,0l1.68,-19.321l-24.993,-0.211l3.963,19.532Z" style="fill:#5c5e5f;fill-rule:nonzero;"/><path d="M111.394,173.884l5.964,19.532l0.869,-19.532l-6.833,0Z" style="fill:#2a2b2a;fill-rule:nonzero;"/><g transform="matrix(1,-3.22153e-17,-3.22153e-17,1.13153,0,-22.926)"><path d="M29.4678,85.9277l-28.118,49.341l2.519,38.615l1.89,0.006l132.637,0.414l3.796,-38.796l-27.505,-49.58l-85.219,0Z" style="fill:#e4e2dc;fill-rule:nonzero;"/></g><g transform="matrix(1,0,0,1,0,-4.6582)"><path d="M1.3447,135.384l0.834,14.584l18.512,0.002l0.941,-14.502l-20.287,-0.084Z" style="fill:#ae2025;fill-rule:nonzero;"/></g><g transform="matrix(1,0,0,1,0,-4.6582)"><path d="M25.8818,135.426l7.041,10.46l-4.455,4.169l-7.771,-0.105l1.055,-14.463l4.13,-0.061Z" style="fill:#f6f1e1;fill-rule:nonzero;"/></g><g transform="matrix(1,0,0,1,0,-4.6582)"><path d="M142.191,135.425l-1.249,14.501l-18.182,0.044l-1.05,-14.491l20.481,-0.054Z" style="fill:#ae2025;fill-rule:nonzero;"/></g><g transform="matrix(1,0,0,1,0,-4.6582)"><path d="M117.706,135.478l-6.009,10.447l4.417,4.044l6.666,-0.044l-1.083,-14.459l-3.991,0.012Z" style="fill:#f6f1e1;fill-rule:nonzero;"/></g><g transform="matrix(1,-8.52366e-17,-8.52366e-17,1.348,1.39815e-14,-42.2467)"><path d="M34.958,90.9817l-14.6294,24.4951l101.925,1.7053e-13l-12.6694,-24.4951l-74.6264,2.84217e-14Z" style="fill:#313156;fill-rule:nonzero;"/></g><path d="M43.9678,171.364c0,2.783 -2.257,5.041 -5.04,5.041c-2.783,0 -5.041,-2.258 -5.041,-5.041c0,-2.783 2.258,-5.04 5.041,-5.04c2.783,0 5.04,2.257 5.04,5.04" style="fill:#2a2b2a;fill-rule:nonzero;"/><g transform="matrix(1,0,0,1,0,-4.6582)"><path d="M32.9219,145.804l-4.454,4.271l87.604,-0.105l-4.417,-4.166l-78.733,0Z" style="fill:#c1bebb;fill-rule:nonzero;"/></g><g transform="matrix(1,0,0,1,0,-4.1445)"><path d="M55.3003,156.916l-3.036,10.645l35.407,0l-3.001,-10.515l-29.37,-0.13Z" style="fill:#f4f2ed;fill-rule:nonzero;"/></g><g transform="matrix(1.35601,0,0,1.35601,-9.08601,-43.1939)"><g opacity="0.300003"><path d="M32.4767,91.1429l-10.7847,24.3504l14.7311,1.42109e-14l24.2705,-24.3504l-28.217,-2.84217e-14Z" style="fill:#0f2342;fill-rule:nonzero;"/></g></g><g opacity="0.300003"><path d="M109.62,80.397l-3.65123,3.11218e-12l-33.219,33.0195l49.5041,-2.84217e-14l-12.6339,-33.0195Z" style="fill:#0a1723;fill-rule:nonzero;"/></g><g transform="matrix(1.34973,0,0,1.34973,-25.576,-42.4401)"><path d="M73.2494,115.472l24.2103,-24.4637l-6.14,2.41585e-13l-23.7937,24.4637l5.72344,8.66862e-13Z" style="fill:#494a72;fill-rule:nonzero;"/></g></g></g></g></svg>

<?xml version="1.0" encoding="UTF-8" standalone="no"?>
<!DOCTYPE svg PUBLIC "-//W3C//DTD SVG 1.1//EN" "http://www.w3.org/Graphics/SVG/1.1/DTD/svg11.dtd">
<svg width="100%" height="100%" viewBox="0 0 288 360" version="1.1" xmlns="http://www.w3.org/2000/svg" xmlns:xlink="http://www.w3.org/1999/xlink" xml:space="preserve" style="fill-rule:evenodd;clip-rule:evenodd;stroke-linejoin:round;stroke-miterlimit:1.41421;">
    <g id="car-outbound-door-left" transform="matrix(1,0,0,1,71.9798,166.584)">
        <g transform="matrix(-1,0,0,1,183.567,0.0005)">
            <g transform="matrix(1,0,0,1,-1205.35,0)">
                <path d="M1383.57,172.303L1453.49,172.238L1447.49,76.303L1396.97,76.303L1375.59,105.802L1383.57,172.303L1383.57,172.303Z" style="fill:rgb(193,190,187);fill-rule:nonzero;"/>
            </g>
            <g transform="matrix(1,0,0,1,-1205.35,0)">
                <path d="M1383.57,172.303L1453.49,172.238L1447.49,76.303L1396.97,76.303L1375.59,105.802L1383.57,172.303L1383.57,172.303Z" style="fill:rgb(193,190,187);fill-rule:nonzero;"/>
            </g>
            <g transform="matrix(1,0,0,1,-1205.35,0)">
                <path d="M1383.57,172.303L1453.49,172.238L1447.49,76.303L1396.97,76.303L1375.59,105.802L1383.57,172.303L1383.57,172.303Z" style="fill:rgb(193,190,187);fill-rule:nonzero;"/>
            </g>
            <g transform="matrix(1,0,0,1,-1205.35,-8)">
                <path d="M1379.94,123.436L1377.91,119.416L1399.21,89.291L1443.56,89.291L1445.8,123.415L1379.94,123.436L1379.94,123.436Z" style="fill:rgb(49,49,86);fill-rule:nonzero;"/>
            </g>
            <g transform="matrix(1,0,0,1,-1205.35,-8)">
                <path d="M1399.21,89.275L1377.91,119.416L1379.96,123.447L1445.81,123.425L1443.58,89.319L1399.21,89.275L1399.21,89.275Z" style="fill:rgb(10,23,35);fill-opacity:0.300003;fill-rule:nonzero;"/>
            </g>
            <g transform="matrix(-1,0,0,1,1956.68,-4.4797)">
                <path d="M1715.83,125.081L1712.93,170.582L1780.26,170.499L1780.26,124.999L1715.83,125.081L1715.83,125.081Z" style="fill:rgb(236,219,177);fill-rule:nonzero;"/>
            </g>
        </g>
        <g>
            <path d="M3.89,173.884L5.57,193.416L24.891,193.416L28.882,173.674L3.89,173.884L3.89,173.884Z" style="fill:rgb(92,94,95);fill-rule:nonzero;"/>
            <path d="M24.052,173.674L24.892,193.416L30.884,173.674L24.052,173.674Z" style="fill:rgb(42,43,42);fill-rule:nonzero;"/>
            <path d="M117.358,193.416L136.708,193.416L138.388,174.095L113.395,173.884L117.358,193.416Z" style="fill:rgb(92,94,95);fill-rule:nonzero;"/>
            <path d="M111.394,173.884L117.358,193.416L118.227,173.884L111.394,173.884Z" style="fill:rgb(42,43,42);fill-rule:nonzero;"/>
            <g transform="matrix(1,-3.22153e-17,-3.22153e-17,1.13153,0,-22.926)">
                <path d="M29.468,85.928L1.35,135.269L3.869,173.884L5.759,173.89L138.396,174.304L142.192,135.508L114.687,85.928L29.468,85.928L29.468,85.928Z" style="fill:rgb(228,226,220);fill-rule:nonzero;"/>
            </g>
            <g transform="matrix(1,0,0,1,0,-4.6582)">
                <path d="M1.345,135.384L2.179,149.968L20.691,149.97L21.632,135.468L1.345,135.384L1.345,135.384Z" style="fill:rgb(174,32,37);fill-rule:nonzero;"/>
            </g>
            <g transform="matrix(1,0,0,1,0,-4.6582)">
                <path d="M25.882,135.426L32.923,145.886L28.468,150.055L20.697,149.95L21.752,135.487L25.882,135.426L25.882,135.426Z" style="fill:rgb(246,241,225);fill-rule:nonzero;"/>
            </g>
            <g transform="matrix(1,0,0,1,0,-4.6582)">
                <path d="M142.191,135.425L140.942,149.926L122.76,149.97L121.71,135.479L142.191,135.425L142.191,135.425Z" style="fill:rgb(174,32,37);fill-rule:nonzero;"/>
            </g>
            <g transform="matrix(1,0,0,1,0,-4.6582)">
                <path d="M117.706,135.478L111.697,145.925L116.114,149.969L122.78,149.925L121.697,135.466L117.706,135.478Z" style="fill:rgb(246,241,225);fill-rule:nonzero;"/>
            </g>
            <g transform="matrix(1,-8.52366e-17,-8.52366e-17,1.348,1.39815e-14,-42.2467)">
                <path d="M34.958,90.982L20.329,115.477L122.254,115.477L109.584,90.982L34.958,90.982L34.958,90.982Z" style="fill:rgb(49,49,86);fill-rule:nonzero;"/>
            </g>
            <path d="M43.968,171.364C43.968,174.147 41.711,176.405 38.928,176.405C36.145,176.405 33.887,174.147 33.887,171.364C33.887,168.581 36.145,166.324 38.928,166.324C41.711,166.324 43.968,168.581 43.968,171.364" style="fill:rgb(42,43,42);fill-rule:nonzero;"/>
            <g transform="matrix(1,0,0,1,0,-4.6582)">
                <path d="M32.922,145.804L28.468,150.075L116.072,149.97L111.655,145.804L32.922,145.804L32.922,145.804Z" style="fill:rgb(193,190,187);fill-rule:nonzero;"/>
            </g>
            <g transform="matrix(1,0,0,1,0,-4.1445)">
                <path d="M55.3,156.916L52.264,167.561L87.671,167.561L84.67,157.046L55.3,156.916L55.3,156.916Z" style="fill:rgb(244,242,237);fill-rule:nonzero;"/>
            </g>
            <g transform="matrix(1.35601,0,0,1.35601,-9.08601,-43.1939)">
                <path d="M32.477,91.143L21.692,115.493L36.423,115.493L60.694,91.143L32.477,91.143L32.477,91.143Z" style="fill:rgb(15,35,66);fill-opacity:0.300003;fill-rule:nonzero;"/>
            </g>
            <path d="M109.62,80.397L105.969,80.397L72.75,113.417L122.254,113.417L109.62,80.397L109.62,80.397Z" style="fill:rgb(10,23,35);fill-opacity:0.300003;fill-rule:nonzero;"/>
            <g transform="matrix(1.34973,0,0,1.34973,-25.576,-42.4401)">
                <path d="M73.249,115.472L97.46,91.008L91.32,91.008L67.526,115.472L73.249,115.472L73.249,115.472Z" style="fill:rgb(73,74,114);fill-rule:nonzero;"/>
            </g>
        </g>
    </g>
</svg>
